assets/images/per4-mob.svg

<svg width="253" height="352" viewBox="0 0 253 352" fill="none" xmlns="http://www.w3.org/2000/svg">
<path d="M12 319.797C12 327.182 10.278 330 5.98878 330C1.69954 330 0 326.96 0 319.785C0 312.06 2.42415 310 6.08722 310C9.98286 310 12 312.375 12 319.797ZM3.36784 319.682C3.36784 324.794 3.73908 327.436 6.01116 327.436C8.28325 327.436 8.63211 324.913 8.63211 319.744C8.63211 314.41 8.18487 312.585 6.02907 312.585C3.99403 312.581 3.36784 314.521 3.36784 319.682Z" fill="#FFB75E"/>
<path d="M252.989 266.215C252.989 266.37 252.989 266.52 252.989 266.675C252.867 268.924 251.914 271.03 250.338 272.533C248.763 274.036 246.692 274.813 244.58 274.695C242.468 274.576 240.486 273.572 239.067 271.901C237.648 270.23 236.908 268.029 237.009 265.779C237.119 263.562 238.037 261.478 239.568 259.971C241.098 258.464 243.12 257.652 245.204 257.709C247.287 257.766 249.268 258.687 250.724 260.275C252.18 261.864 252.997 263.995 253 266.215L252.989 266.215ZM240.702 266.215C240.732 267.434 241.212 268.591 242.037 269.436C242.862 270.281 243.966 270.746 245.11 270.73C246.254 270.714 247.347 270.218 248.151 269.351C248.955 268.483 249.406 267.313 249.406 266.094C249.406 264.875 248.955 263.705 248.151 262.838C247.347 261.97 246.254 261.475 245.11 261.459C243.966 261.443 242.862 261.908 242.037 262.753C241.212 263.597 240.732 264.755 240.702 265.973L240.702 266.215Z" fill="#FFB75E"/>
<path d="M128.014 19.7066C83.9325 19.7066 47.6788 53.2881 43.3472 96.3115C43.1405 98.3741 42.4434 100.357 41.3143 102.094C40.1851 103.831 38.6569 105.272 36.8576 106.296C28.405 111.111 21.3751 118.081 16.4823 126.5C11.5895 134.918 9.00803 144.484 9.00024 154.225L9.00024 219.725C8.99252 220.224 9.16887 220.708 9.49543 221.084C9.82199 221.461 10.2758 221.703 10.7698 221.765C11.0431 221.792 11.319 221.761 11.5797 221.675C11.8404 221.588 12.08 221.448 12.283 221.262C12.4861 221.077 12.648 220.851 12.7584 220.599C12.8688 220.347 12.9251 220.075 12.9238 219.8L12.9238 154.217C12.9113 142.951 16.6257 131.999 23.4861 123.073C29.8972 114.712 43.1353 117.404 45.921 127.574C55.8084 163.691 88.8096 190.232 127.998 190.232C167.187 190.232 200.192 163.691 210.079 127.574C212.861 117.404 226.099 114.712 232.51 123.073C239.372 131.999 243.087 142.951 243.076 154.217L243.076 258.657C243.069 259.155 243.244 259.638 243.57 260.015C243.896 260.391 244.349 260.634 244.842 260.697C245.116 260.724 245.392 260.694 245.653 260.607C245.914 260.521 246.154 260.381 246.358 260.195C246.561 260.01 246.724 259.784 246.834 259.532C246.945 259.279 247.001 259.007 247 258.731L247 154.217C246.992 144.476 244.411 134.91 239.518 126.492C234.625 118.073 227.595 111.103 219.143 106.288C217.343 105.264 215.815 103.824 214.686 102.086C213.557 100.349 212.86 98.3663 212.653 96.3036C208.349 53.2881 172.099 19.7066 128.014 19.7066Z" fill="#FFB75E"/>
<path d="M129.528 25.7307C172.411 26.7864 206.946 61.1413 207.977 103.75C209.074 149.138 171.538 186.597 125.862 185.69C105.076 185.294 85.2532 176.912 70.5525 162.303C55.8518 147.695 47.4164 127.995 47.0164 107.339C46.0997 61.9116 83.8208 24.6203 129.528 25.7307Z" fill="url(#paint0_linear_1227_18)"/>
<path d="M180.32 52.7964C151.181 23.6377 104.033 23.5423 75.0109 52.5832C45.9894 81.6241 46.0848 128.804 75.224 157.963C104.363 187.121 151.512 187.217 180.534 158.176C209.555 129.135 209.46 81.9551 180.32 52.7964Z" fill="#F9F9F9"/>
<path d="M12 252.564L12 252.849C12 253.607 11.842 254.334 11.5607 254.87C11.2794 255.406 10.8978 255.707 10.5 255.707C10.1022 255.707 9.72065 255.406 9.43934 254.87C9.15804 254.334 9 253.607 9 252.849L9 252.564C9 251.806 9.15804 251.079 9.43934 250.543C9.72065 250.008 10.1022 249.707 10.5 249.707C10.8978 249.707 11.2794 250.008 11.5607 250.543C11.842 251.079 12 251.806 12 252.564Z" fill="#FFB75E"/>
<path d="M12 285.634L12 286.02C12 286.531 11.842 287.021 11.5607 287.383C11.2794 287.744 10.8978 287.947 10.5 287.947C10.1022 287.947 9.72065 287.744 9.43934 287.383C9.15804 287.021 9 286.531 9 286.02L9 285.634C9 285.123 9.15804 284.633 9.43934 284.271C9.72065 283.91 10.1022 283.707 10.5 283.707C10.8978 283.707 11.2794 283.91 11.5607 284.271C11.842 284.633 12 285.123 12 285.634ZM12 317.512L12 317.897C12 318.409 11.842 318.899 11.5607 319.26C11.2794 319.622 10.8978 319.825 10.5 319.825C10.1022 319.825 9.72065 319.622 9.43934 319.26C9.15804 318.899 9 318.409 9 317.897L9 317.512C9 317.001 9.15804 316.51 9.43934 316.149C9.72065 315.787 10.1022 315.584 10.5 315.584C10.8978 315.584 11.2794 315.787 11.5607 316.149C11.842 316.51 12 317.001 12 317.512ZM12 349.393L12 349.779C12 350.29 11.842 350.78 11.5607 351.142C11.2794 351.503 10.8978 351.707 10.5 351.707C10.1022 351.707 9.72065 351.503 9.43934 351.142C9.15804 350.78 9 350.29 9 349.779L9 349.393C9 348.882 9.15804 348.392 9.43934 348.031C9.72065 347.669 10.1022 347.466 10.5 347.466C10.8978 347.466 11.2794 347.669 11.5607 348.031C11.842 348.392 12 348.882 12 349.393Z" fill="#FFB75E"/>
<path d="M20.5658 330V325.058H14V322.456L19.5506 310H23.2691V322.469H25L24.7316 325.058H23.2691V330H20.5658ZM20.5658 317.876C20.5658 315.868 20.5969 314.121 20.6631 312.501C19.9668 314.715 17.9402 319.526 16.7267 322.469H20.5658V317.876Z" fill="#FFB75E"/>
<g clip-path="url(#clip0_1227_18)">
<path fill-rule="evenodd" clip-rule="evenodd" d="M136.486 129.891H98.1085C96.9072 129.891 95.9336 128.913 95.9336 127.72V75.1083C95.9336 73.908 96.9083 72.9333 98.1085 72.9333H131.99C132.587 72.9333 133.104 73.1503 133.524 73.57L139.731 79.7766C140.15 80.1963 140.367 80.7134 140.367 81.3108V104.798C146.96 105.281 152.157 110.781 152.157 117.497C152.157 119.886 151.499 122.122 150.355 124.032L152.755 126.363C153.508 126.07 154.4 126.217 155.015 126.812L155.015 126.813L161.422 133.031C162.261 133.843 162.285 135.194 161.467 136.039L161.466 136.04L159.154 138.422L159.153 138.423C158.341 139.259 156.993 139.283 156.149 138.472L156.144 138.468L149.741 132.251C149.123 131.654 148.947 130.766 149.218 130.004L146.93 127.784C144.825 129.323 142.23 130.231 139.423 130.231C138.434 130.232 137.448 130.118 136.486 129.891ZM131.379 75.0667H98.1085C98.0975 75.0667 98.0869 75.0711 98.0791 75.0789C98.0713 75.0867 98.0669 75.0972 98.0669 75.1083V127.72C98.0669 127.742 98.0867 127.758 98.1085 127.758H131.879C130.66 126.86 129.611 125.754 128.779 124.49H100.77C100.182 124.49 99.7037 124.012 99.7037 123.423C99.7037 122.835 100.182 122.357 100.77 122.357H101.96V114.59C101.96 114.307 102.072 114.036 102.272 113.836C102.472 113.636 102.744 113.524 103.027 113.524H107.634C107.917 113.524 108.188 113.636 108.388 113.836C108.588 114.036 108.701 114.307 108.701 114.59V122.357H110.513V109.965C110.513 109.682 110.625 109.411 110.825 109.211C111.025 109.011 111.296 108.898 111.579 108.898H116.181C116.464 108.898 116.735 109.011 116.935 109.211C117.135 109.411 117.248 109.682 117.248 109.965V122.357H119.059V105.13C119.059 104.847 119.172 104.576 119.372 104.376C119.572 104.176 119.843 104.064 120.126 104.064H124.728C125.011 104.064 125.282 104.176 125.482 104.376C125.682 104.576 125.794 104.847 125.794 105.13V122.357H127.649C127.03 120.859 126.689 119.218 126.689 117.497C126.689 115.816 127.014 114.211 127.606 112.741V100.785C127.606 100.502 127.719 100.231 127.919 100.031C128.119 99.8311 128.39 99.7187 128.673 99.7187H133.275C133.557 99.7187 133.829 99.8311 134.029 100.031C134.229 100.231 134.341 100.502 134.341 100.785V105.817C135.577 105.279 136.891 104.941 138.234 104.818V81.9218H133C132.111 81.9218 131.379 81.1894 131.379 80.301V75.0667ZM136.726 79.7884L133.512 76.5752V79.7884H136.726ZM149.094 125.782C148.918 125.987 148.736 126.187 148.547 126.38L150.568 128.341L151.132 127.76L149.094 125.782ZM129.739 109.226C130.462 108.381 131.292 107.633 132.208 107.002V101.852H129.739V109.226ZM121.193 122.357H123.661V106.197H121.193V122.357ZM112.646 122.357H115.114V111.031H112.646V122.357ZM104.093 122.357H106.567V115.657H104.093V122.357ZM151.23 130.723L157.626 136.933L159.932 134.557L153.534 128.348L151.23 130.723ZM131.795 94.8015C122.53 102.813 112.443 107.916 102.894 111.241C102.627 111.334 102.333 111.317 102.079 111.193C101.824 111.07 101.629 110.851 101.536 110.584C101.443 110.317 101.46 110.024 101.583 109.769C101.706 109.514 101.925 109.319 102.192 109.226C111.478 105.994 121.285 101.042 130.3 93.2738L129.651 93.3095C129.368 93.3249 129.091 93.2276 128.881 93.0389C128.67 92.8503 128.543 92.5856 128.527 92.3032C128.512 92.0208 128.609 91.7438 128.798 91.5331C128.986 91.3224 129.251 91.1952 129.533 91.1795L133.216 90.9766C133.374 90.9678 133.531 90.9942 133.678 91.0539C133.824 91.1136 133.955 91.2051 134.062 91.3217C134.168 91.4383 134.248 91.5771 134.294 91.7282C134.341 91.8792 134.353 92.0387 134.33 92.1951L133.799 95.8478C133.758 96.1276 133.608 96.3799 133.381 96.549C133.154 96.7182 132.87 96.7904 132.59 96.7498C132.007 96.6651 131.603 96.1234 131.688 95.5407L131.795 94.8015ZM119.171 86.7494C118.582 86.7494 118.104 86.2714 118.104 85.6827C118.104 85.094 118.582 84.616 119.171 84.616H121.899C122.487 84.616 122.965 85.094 122.965 85.6827C122.965 86.2714 122.487 86.7494 121.899 86.7494H119.171ZM102.543 86.7494C101.954 86.7494 101.476 86.2714 101.476 85.6827C101.476 85.094 101.954 84.616 102.543 84.616H113.765C114.354 84.616 114.832 85.094 114.832 85.6827C114.832 86.2714 114.354 86.7494 113.765 86.7494H102.543ZM102.543 81.6727C101.954 81.6727 101.476 81.1947 101.476 80.606C101.476 80.0172 101.954 79.5393 102.543 79.5393H105.633C106.221 79.5393 106.699 80.0172 106.699 80.606C106.699 81.1947 106.221 81.6727 105.633 81.6727H102.543ZM111.313 81.6727C110.724 81.6727 110.246 81.1947 110.246 80.606C110.246 80.0172 110.724 79.5393 111.313 79.5393H121.899C122.487 79.5393 122.965 80.0172 122.965 80.606C122.965 81.1947 122.487 81.6727 121.899 81.6727H111.313ZM102.543 91.826C101.954 91.826 101.476 91.3482 101.476 90.7594C101.476 90.1707 101.954 89.6927 102.543 89.6927H110.659C111.247 89.6927 111.725 90.1707 111.725 90.7594C111.725 91.3482 111.247 91.826 110.659 91.826H102.543ZM115.163 91.826C114.575 91.826 114.097 91.3482 114.097 90.7594C114.097 90.1707 114.575 89.6927 115.163 89.6927H121.899C122.487 89.6927 122.965 90.1707 122.965 90.7594C122.965 91.3482 122.487 91.826 121.899 91.826H115.163ZM139.423 106.896C133.568 106.896 128.822 111.642 128.822 117.497C128.822 123.352 133.568 128.098 139.423 128.098C145.278 128.098 150.024 123.352 150.024 117.497C150.024 111.642 145.278 106.896 139.423 106.896ZM139.423 108.177C144.57 108.177 148.743 112.35 148.743 117.497C148.743 122.645 144.57 126.817 139.423 126.817C134.275 126.817 130.103 122.645 130.103 117.497C130.103 112.35 134.275 108.177 139.423 108.177ZM139.423 110.311C135.454 110.311 132.236 113.528 132.236 117.497C132.236 121.466 135.454 124.684 139.423 124.684C143.392 124.684 146.609 121.466 146.609 117.497C146.609 113.528 143.392 110.311 139.423 110.311Z" fill="black" fill-opacity="0.62"/>
</g>
<defs>
<linearGradient id="paint0_linear_1227_18" x1="184.344" y1="162.197" x2="71.3619" y2="48.5082" gradientUnits="userSpaceOnUse">
<stop stop-color="#EBEAEA"/>
<stop offset="1" stop-color="white"/>
</linearGradient>
<clipPath id="clip0_1227_18">
<rect width="68" height="68" fill="white" transform="translate(95 72)"/>
</clipPath>
</defs>
</svg>

<svg width="253" height="352" fill="none" xmlns="http://www.w3.org/2000/svg"><path d="M12 319.797C12 327.182 10.278 330 5.989 330 1.699 330 0 326.96 0 319.785 0 312.06 2.424 310 6.087 310c3.896 0 5.913 2.375 5.913 9.797Zm-8.632-.115c0 5.112.371 7.754 2.643 7.754s2.621-2.523 2.621-7.692c0-5.334-.447-7.159-2.603-7.159-2.035-.004-2.661 1.936-2.661 7.097ZM252.989 266.215v.46c-.122 2.249-1.075 4.355-2.651 5.858-1.575 1.503-3.646 2.28-5.758 2.162-2.112-.119-4.094-1.123-5.513-2.794-1.419-1.671-2.159-3.872-2.058-6.122.11-2.217 1.028-4.301 2.559-5.808 1.53-1.507 3.552-2.319 5.636-2.262 2.083.057 4.064.978 5.52 2.566 1.456 1.589 2.273 3.72 2.276 5.94h-.011Zm-12.287 0a4.782 4.782 0 0 0 1.335 3.221 4.212 4.212 0 0 0 3.073 1.294c1.144-.016 2.237-.512 3.041-1.379a4.798 4.798 0 0 0 1.255-3.257 4.793 4.793 0 0 0-1.255-3.256 4.227 4.227 0 0 0-3.041-1.379 4.212 4.212 0 0 0-3.073 1.294 4.78 4.78 0 0 0-1.335 3.22v.242Z" fill="#FFB75E"/><path d="M128.014 19.707c-44.082 0-80.335 33.581-84.667 76.604a12.986 12.986 0 0 1-6.49 9.985A55.129 55.129 0 0 0 16.483 126.5 55.264 55.264 0 0 0 9 154.225v65.5a2.025 2.025 0 0 0 1.77 2.04 1.968 1.968 0 0 0 1.513-.503 1.961 1.961 0 0 0 .64-1.462v-65.583a51.015 51.015 0 0 1 10.563-31.144c6.411-8.361 19.65-5.669 22.435 4.501 9.887 36.117 42.889 62.658 82.077 62.658 39.189 0 72.194-26.541 82.081-62.658 2.782-10.17 16.02-12.862 22.431-4.501a51.018 51.018 0 0 1 10.566 31.144v104.44a2.024 2.024 0 0 0 1.766 2.04 1.956 1.956 0 0 0 1.516-.502 1.959 1.959 0 0 0 .642-1.464V154.217a55.264 55.264 0 0 0-7.482-27.725 55.134 55.134 0 0 0-20.375-20.204 12.949 12.949 0 0 1-4.457-4.202 12.99 12.99 0 0 1-2.033-5.782c-4.304-43.016-40.554-76.597-84.639-76.597Z" fill="#FFB75E"/><path d="M129.528 25.73c42.883 1.056 77.418 35.411 78.449 78.02 1.097 45.388-36.439 82.847-82.115 81.94-20.786-.396-40.609-8.778-55.31-23.387-14.7-14.608-23.136-34.308-23.536-54.964-.916-45.427 36.805-82.719 82.512-81.608Z" fill="url(#a)"/><path d="M180.32 52.796c-29.139-29.158-76.287-29.254-105.31-.213-29.02 29.041-28.925 76.221.214 105.38 29.139 29.158 76.288 29.254 105.31.213 29.021-29.041 28.926-76.22-.214-105.38Z" fill="#F9F9F9"/><path d="M12 252.564v.285c0 .758-.158 1.485-.44 2.021-.28.536-.662.837-1.06.837s-.78-.301-1.06-.837c-.282-.536-.44-1.263-.44-2.021v-.285c0-.758.158-1.485.44-2.021.28-.535.662-.836 1.06-.836s.78.301 1.06.836c.282.536.44 1.263.44 2.021ZM12 285.634v.386c0 .511-.158 1.001-.44 1.363-.28.361-.662.564-1.06.564s-.78-.203-1.06-.564c-.282-.362-.44-.852-.44-1.363v-.386c0-.511.158-1.001.44-1.363.28-.361.662-.564 1.06-.564s.78.203 1.06.564c.282.362.44.852.44 1.363Zm0 31.878v.385c0 .512-.158 1.002-.44 1.363-.28.362-.662.565-1.06.565s-.78-.203-1.06-.565c-.282-.361-.44-.851-.44-1.363v-.385c0-.511.158-1.002.44-1.363.28-.362.662-.565 1.06-.565s.78.203 1.06.565c.282.361.44.852.44 1.363Zm0 31.881v.386c0 .511-.158 1.001-.44 1.363-.28.361-.662.565-1.06.565s-.78-.204-1.06-.565c-.282-.362-.44-.852-.44-1.363v-.386c0-.511.158-1.001.44-1.362.28-.362.662-.565 1.06-.565s.78.203 1.06.565c.282.361.44.851.44 1.362ZM20.566 330v-4.942H14v-2.602L19.55 310h3.72v12.469H25l-.268 2.589h-1.463V330h-2.703Zm0-12.124c0-2.008.03-3.755.097-5.375-.696 2.214-2.723 7.025-3.936 9.968h3.839v-4.593Z" fill="#FFB75E"/><g clip-path="url(#b)"><path fill-rule="evenodd" clip-rule="evenodd" d="M136.486 129.891H98.109a2.177 2.177 0 0 1-2.175-2.171V75.108c0-1.2.974-2.175 2.175-2.175h33.881c.597 0 1.114.217 1.534.637l6.207 6.207c.419.42.636.936.636 1.534v23.487c6.593.483 11.79 5.983 11.79 12.699 0 2.389-.658 4.625-1.802 6.535l2.4 2.331a2.14 2.14 0 0 1 2.26.449v.001l6.407 6.218c.839.812.863 2.163.045 3.008l-.001.001-2.312 2.382-.001.001c-.812.836-2.16.86-3.004.049l-.005-.004-6.403-6.217a2.133 2.133 0 0 1-.523-2.247l-2.288-2.22a12.675 12.675 0 0 1-7.507 2.447 12.734 12.734 0 0 1-2.937-.34Zm-5.107-54.824h-33.27a.042.042 0 0 0-.042.041v52.612c0 .022.02.038.042.038h33.77a12.797 12.797 0 0 1-3.1-3.268H100.77a1.067 1.067 0 0 1 0-2.133h1.19v-7.767a1.066 1.066 0 0 1 1.067-1.066h4.607a1.066 1.066 0 0 1 1.067 1.066v7.767h1.812v-12.392a1.066 1.066 0 0 1 1.066-1.067h4.602a1.067 1.067 0 0 1 1.067 1.067v12.392h1.811V105.13a1.067 1.067 0 0 1 1.067-1.066h4.602a1.066 1.066 0 0 1 1.066 1.066v17.227h1.855a12.695 12.695 0 0 1-.96-4.86c0-1.681.325-3.286.917-4.756v-11.956a1.067 1.067 0 0 1 1.067-1.066h4.602a1.068 1.068 0 0 1 1.066 1.066v5.032a12.644 12.644 0 0 1 3.893-.999V81.922H133a1.63 1.63 0 0 1-1.621-1.621v-5.234Zm5.347 4.721-3.214-3.213v3.213h3.214Zm12.368 45.994c-.176.205-.358.405-.547.598l2.021 1.961.564-.581-2.038-1.978Zm-19.355-16.556a12.827 12.827 0 0 1 2.469-2.224v-5.15h-2.469v7.374Zm-8.546 13.131h2.468v-16.16h-2.468v16.16Zm-8.547 0h2.468v-11.326h-2.468v11.326Zm-8.553 0h2.474v-6.7h-2.474v6.7Zm47.137 8.366 6.396 6.21 2.306-2.376-6.398-6.209-2.304 2.375Zm-19.435-35.922c-9.265 8.012-19.352 13.115-28.901 16.44a1.064 1.064 0 0 1-1.311-1.472c.123-.255.342-.45.609-.543 9.286-3.232 19.093-8.184 28.108-15.952l-.649.035a1.065 1.065 0 0 1-.853-1.776c.188-.21.453-.338.735-.353l3.683-.203a1.067 1.067 0 0 1 1.114 1.218l-.531 3.653a1.067 1.067 0 0 1-2.111-.307l.107-.74Zm-12.624-8.052a1.067 1.067 0 0 1 0-2.133h2.728a1.067 1.067 0 0 1 0 2.133h-2.728Zm-16.628 0a1.067 1.067 0 0 1 0-2.133h11.222a1.067 1.067 0 0 1 0 2.133h-11.222Zm0-5.076a1.067 1.067 0 0 1 0-2.134h3.09a1.067 1.067 0 0 1 0 2.134h-3.09Zm8.77 0a1.067 1.067 0 0 1 0-2.134h10.586a1.067 1.067 0 0 1 0 2.134h-10.586Zm-8.77 10.153a1.067 1.067 0 0 1 0-2.133h8.116a1.067 1.067 0 0 1 0 2.133h-8.116Zm12.62 0a1.067 1.067 0 0 1 0-2.133h6.736a1.067 1.067 0 0 1 0 2.133h-6.736Zm24.26 15.07c-5.855 0-10.601 4.746-10.601 10.601s4.746 10.601 10.601 10.601 10.601-4.746 10.601-10.601-4.746-10.601-10.601-10.601Zm0 1.281a9.32 9.32 0 1 1 0 18.64 9.32 9.32 0 0 1 0-18.64Zm0 2.134a7.186 7.186 0 1 0-.001 14.373 7.186 7.186 0 0 0 .001-14.373Z" fill="#000" fill-opacity=".62"/></g><defs><linearGradient id="a" x1="184.344" y1="162.197" x2="71.362" y2="48.508" gradientUnits="userSpaceOnUse"><stop stop-color="#EBEAEA"/><stop offset="1" stop-color="#fff"/></linearGradient><clipPath id="b"><path fill="#fff" transform="translate(95 72)" d="M0 0h68v68H0z"/></clipPath></defs></svg>
